img/illo-gobal.svg

<svg fill="none" height="480" viewBox="0 0 484 480" width="484" xmlns="http://www.w3.org/2000/svg" xmlns:xlink="http://www.w3.org/1999/xlink"><clipPath id="a"><path d="m0 0h483.179v480h-483.179z"/></clipPath><g clip-path="url(#a)"><path d="m483.179 0h-483.179v480h483.179z" fill="#56ccf2"/><path d="m244.576 417.004c89.899 0 162.777-72.339 162.777-161.574s-72.878-161.5743-162.777-161.5743-162.777 72.3393-162.777 161.5743 72.878 161.574 162.777 161.574z" fill="#56ccf2"/><path d="m244.575 403.936c82.628 0 149.611-66.489 149.611-148.506 0-82.018-66.983-148.506-149.611-148.506s-149.6111 66.488-149.6111 148.506c0 82.017 66.9831 148.506 149.6111 148.506z" stroke="#fff" stroke-width="2"/><path d="m245.176 403.936c41.314 0 74.805-66.489 74.805-148.506 0-82.018-33.491-148.506-74.805-148.506s-74.806 66.488-74.806 148.506c0 82.017 33.492 148.506 74.806 148.506z" stroke="#fff" stroke-width="2"/><path d="m351.679 150.575c-58.661 58.228-153.768 58.228-212.429 0" stroke="#fff" stroke-width="2"/><path d="m139.25 360.86c58.661-58.228 153.768-58.228 212.429 0" stroke="#fff" stroke-width="2"/><path d="m245.773 105.736v299.388" stroke="#fff" stroke-width="2"/><path d="m395.385 256.618h-301.6159" stroke="#fff" stroke-width="2"/><path d="m284.944 229.38c-2.643-3.339-2.054-8.163 1.318-10.777 3.37-2.614 8.246-2.027 10.889 1.312l1.388 1.752c3.21 4.052 1.561 10.02-3.286 11.886-3.186 1.228-6.811.244-8.921-2.421z" fill="#0d06c1"/><path d="m309.026 223.018c4.585 2.626 6.155 8.444 3.509 12.995l-13.079 22.486c-3.061 5.262-9.839 7.064-15.142 4.026-5.735-3.287-7.305-10.802-3.359-16.083l15.582-20.853c2.901-3.882 8.273-4.988 12.489-2.571z" fill="#241ed3"/><path d="m211.196 269.431 4.11 6.089c4.833 7.164 13.197 11.165 21.853 10.457l60.043-4.909c4.055-.331 7.728-2.502 9.956-5.882l21.051-31.938c2.762-4.193 1.902-9.777-1.997-12.957-4.051-3.308-10-2.898-13.553.933l-26.108 28.137-32.619-1.065c-8.523-.278-16.252-5.037-20.293-12.49l-1.537-2.836z" fill="#403add"/><path d="m215.475 294.221c3.97 1.579 5.89 6.05 4.288 9.987-1.603 3.936-6.121 5.847-10.091 4.268l-2.085-.828c-4.823-1.917-6.399-7.904-3.142-11.925 2.141-2.645 5.776-3.59 8.945-2.331z" fill="#0d06c1"/><path d="m197.825 311.682c-5.292 0-9.583-4.26-9.583-9.513v-25.964c0-6.076 4.962-11.002 11.083-11.002 6.625 0 11.769 5.729 11.012 12.261l-2.99 25.793c-.558 4.801-4.653 8.425-9.522 8.425z" fill="#241ed3"/><path d="m263.128 212.66-9.066-4.545c-7.835-3.928-17.207-3.284-24.422 1.677l-49.384 33.954c-3.344 2.3-5.433 6.002-5.659 10.034l-2.142 38.108c-.281 5.001 3.277 9.41 8.255 10.231 5.175.852 10.119-2.454 11.268-7.536l8.436-37.325 28.785-15.266c7.522-3.989 16.612-3.705 23.866.745l2.759 1.693z" fill="#403add"/><path d="m279.069 320.083 28.939-14.298c5.104-2.522 6.043-9.357 1.805-13.15-2.04-1.826-4.873-2.502-7.525-1.794l-15.796 4.215c-12.557 3.353-25.948-.691-34.507-10.418l-1.269-1.442c-6.567-7.465-.124-18.982 9.729-17.388l37.28 6.029c5.045.816 9.916-2.204 11.387-7.061 1.515-4.993-1.048-10.313-5.916-12.283l-80.986-32.78c-28.795-11.656-59.786-16.992-90.844-15.64l-39.5957 1.723c-21.4223.931-38.2973 18.43-38.2973 39.711 0 25.466 23.7726 44.397 48.817 38.872l26.335-5.808c15.598-3.441 31.912-1.618 46.357 5.178l77.759 36.583c8.353 3.929 18.058 3.838 26.328-.249z" fill="#5f5ae0"/><path d="m321.676 241.873-61.291-30.559-20.745 7.226 21.653 22.437c6.935 7.187 2.446 19.12-7.531 20.025l-50.428 4.576c-4.957.451-8.93 4.244-9.572 9.136-.708 5.405 2.85 10.465 8.213 11.678l108.191 24.469c15.74 3.56 31.831 5.357 47.969 5.357h28.882c20.498 0 37.094-16.455 37.094-36.779 0-23.527-21.934-41.071-45.115-36.083l-16.81 3.618c-13.685 2.945-27.984 1.144-40.51-5.101z" fill="#403add"/><path d="m297.719 271.818-73.066-11.967c-.268-.044-.509-.186-.677-.397-12.36-15.612 4.145-37.349 22.668-29.852l56.776 22.982c4.741 1.918 7.236 7.1 5.762 11.964l-.066.22c-1.474 4.859-6.351 7.877-11.397 7.05z" fill="#5f5ae0"/><g fill="#fff500"><path d="m245.174 387.303c8.263 0 14.961-6.649 14.961-14.85 0-8.202-6.698-14.851-14.961-14.851-8.262 0-14.961 6.649-14.961 14.851 0 8.201 6.699 14.85 14.961 14.85z"/><path d="m306.216 338.593c4.297 0 7.78-3.457 7.78-7.722s-3.483-7.722-7.78-7.722-7.78 3.457-7.78 7.722 3.483 7.722 7.78 7.722z"/><path d="m217.048 364.73c5.288 0 9.575-4.255 9.575-9.504s-4.287-9.504-9.575-9.504-9.575 4.255-9.575 9.504 4.287 9.504 9.575 9.504z"/><path d="m219.442 381.363c1.983 0 3.59-1.596 3.59-3.564s-1.607-3.564-3.59-3.564-3.591 1.596-3.591 3.564 1.608 3.564 3.591 3.564z"/><path d="m138.651 365.918c2.975 0 5.386-2.393 5.386-5.346 0-2.952-2.411-5.346-5.386-5.346-2.974 0-5.386 2.394-5.386 5.346 0 2.953 2.412 5.346 5.386 5.346z"/><path d="m181.74 336.217c2.975 0 5.386-2.393 5.386-5.346s-2.411-5.346-5.386-5.346-5.386 2.393-5.386 5.346 2.411 5.346 5.386 5.346z"/><path d="m351.697 365.918c2.975 0 5.386-2.393 5.386-5.346 0-2.952-2.411-5.346-5.386-5.346-2.974 0-5.386 2.394-5.386 5.346 0 2.953 2.412 5.346 5.386 5.346z"/><path d="m245.174 409.876c2.974 0 5.386-2.394 5.386-5.346 0-2.953-2.412-5.346-5.386-5.346-2.975 0-5.386 2.393-5.386 5.346 0 2.952 2.411 5.346 5.386 5.346z"/><path d="m187.724 357.602c2.974 0 5.386-2.394 5.386-5.346 0-2.953-2.412-5.346-5.386-5.346-2.975 0-5.386 2.393-5.386 5.346 0 2.952 2.411 5.346 5.386 5.346z"/><path d="m245.175 116.429c4.958 0 8.977-3.99 8.977-8.911s-4.019-8.9102-8.977-8.9102c-4.957 0-8.976 3.9892-8.976 8.9102s4.019 8.911 8.976 8.911z"/><path d="m245.174 199.592c2.974 0 5.386-2.394 5.386-5.346 0-2.953-2.412-5.347-5.386-5.347-2.975 0-5.386 2.394-5.386 5.347 0 2.952 2.411 5.346 5.386 5.346z"/><path d="m180.543 182.959c2.974 0 5.386-2.393 5.386-5.346s-2.412-5.346-5.386-5.346c-2.975 0-5.386 2.393-5.386 5.346s2.411 5.346 5.386 5.346z"/><path d="m308.609 185.335c2.974 0 5.386-2.393 5.386-5.346s-2.412-5.346-5.386-5.346c-2.975 0-5.386 2.393-5.386 5.346s2.411 5.346 5.386 5.346z"/><path d="m350.5 155.634c2.975 0 5.386-2.393 5.386-5.346s-2.411-5.346-5.386-5.346c-2.974 0-5.386 2.393-5.386 5.346s2.412 5.346 5.386 5.346z"/></g><path d="m350.501 169.891c10.907 0 19.748-8.777 19.748-19.603s-8.841-19.603-19.748-19.603-19.749 8.777-19.749 19.603 8.842 19.603 19.749 19.603z" stroke="#fff500"/><path d="m138.651 155.634c2.975 0 5.386-2.393 5.386-5.346s-2.411-5.346-5.386-5.346c-2.974 0-5.386 2.393-5.386 5.346s2.412 5.346 5.386 5.346z" fill="#fff500"/><path d="m139.277 42.616v69.068" stroke="#fff"/><path d="m170.924 76.9016h-62.794" stroke="#fff"/><path d="m153.976 90.6481-27.6-27.3971" stroke="#fff"/><path d="m153.125 63.2509-27.6 27.3972" stroke="#fff"/><path d="m322.126 18.7013v33.2653" stroke="#fff"/><path d="m337.058 35.5224h-30.243" stroke="#fff"/><path d="m328.676 42.0528-13.293-13.1953" stroke="#fff"/><path d="m328.704 28.8574-13.293 13.1954" stroke="#fff"/><path d="m249.363 418.192v-3.564h-8.378v3.564z" fill="#fff500"/><path d="m249.363 95.0437v-3.5641h-8.378v3.5641z" fill="#fff500"/><path d="m231.409 79.5991c10.577 0 19.151-8.5105 19.151-19.0087 0-10.4983-8.574-19.0088-19.151-19.0088-10.576 0-19.15 8.5105-19.15 19.0088 0 10.4982 8.574 19.0087 19.15 19.0087z" fill="#403add"/><path d="m258.939 79.5991c10.576 0 19.15-8.5105 19.15-19.0087 0-10.4983-8.574-19.0088-19.15-19.0088-10.577 0-19.15 8.5105-19.15 19.0088 0 10.4982 8.573 19.0087 19.15 19.0087z" fill="#5b57ca"/><path clip-rule="evenodd" d="m245.175 73.8065c3.334-3.4206 5.386-8.0806 5.386-13.2161 0-5.1356-2.052-9.7956-5.386-13.2162-3.335 3.4206-5.386 8.0806-5.386 13.2162 0 5.1355 2.051 9.7955 5.386 13.2161z" fill="#fff500" fill-rule="evenodd"/></g></svg>

<svg width="484" height="480" viewBox="0 0 484 480" fill="none" xmlns="http://www.w3.org/2000/svg">
<g clip-path="url(#clip0_1338_2638)">
<path d="M483.179 0H0V480H483.179V0Z" fill="#56CCF2"/>
<path d="M244.576 417.004C334.475 417.004 407.353 344.665 407.353 255.43C407.353 166.195 334.475 93.8557 244.576 93.8557C154.677 93.8557 81.799 166.195 81.799 255.43C81.799 344.665 154.677 417.004 244.576 417.004Z" fill="#56CCF2"/>
<path d="M244.575 403.936C327.203 403.936 394.186 337.447 394.186 255.43C394.186 173.412 327.203 106.924 244.575 106.924C161.947 106.924 94.9639 173.412 94.9639 255.43C94.9639 337.447 161.947 403.936 244.575 403.936Z" stroke="white" stroke-width="2"/>
<path d="M245.176 403.936C286.49 403.936 319.981 337.447 319.981 255.43C319.981 173.412 286.49 106.924 245.176 106.924C203.862 106.924 170.37 173.412 170.37 255.43C170.37 337.447 203.862 403.936 245.176 403.936Z" stroke="white" stroke-width="2"/>
<path d="M351.679 150.575C293.018 208.803 197.911 208.803 139.25 150.575" stroke="white" stroke-width="2"/>
<path d="M139.25 360.86C197.911 302.632 293.018 302.632 351.679 360.86" stroke="white" stroke-width="2"/>
<path d="M245.773 105.736V405.124" stroke="white" stroke-width="2"/>
<path d="M395.385 256.618H93.7691" stroke="white" stroke-width="2"/>
<path d="M284.944 229.38C282.301 226.041 282.89 221.217 286.262 218.603C289.632 215.989 294.508 216.576 297.151 219.915L298.539 221.667C301.749 225.719 300.1 231.687 295.253 233.553C292.067 234.781 288.442 233.797 286.332 231.132L284.944 229.38Z" fill="#0D06C1"/>
<path d="M309.026 223.018C313.611 225.644 315.181 231.462 312.535 236.013L299.456 258.499C296.395 263.761 289.617 265.563 284.314 262.525C278.579 259.238 277.009 251.723 280.955 246.442L296.537 225.589C299.438 221.707 304.81 220.601 309.026 223.018Z" fill="#241ED3"/>
<path d="M211.196 269.431L215.306 275.52C220.139 282.684 228.503 286.685 237.159 285.977L297.202 281.068C301.257 280.737 304.93 278.566 307.158 275.186L328.209 243.248C330.971 239.055 330.111 233.471 326.212 230.291C322.161 226.983 316.212 227.393 312.659 231.224L286.551 259.361L253.932 258.296C245.409 258.018 237.68 253.259 233.639 245.806L232.102 242.97L211.196 269.431Z" fill="#403ADD"/>
<path d="M215.475 294.221C219.445 295.8 221.365 300.271 219.763 304.208C218.16 308.144 213.642 310.055 209.672 308.476L207.587 307.648C202.764 305.731 201.188 299.744 204.445 295.723C206.586 293.078 210.221 292.133 213.39 293.392L215.475 294.221Z" fill="#0D06C1"/>
<path d="M197.825 311.682C192.533 311.682 188.242 307.422 188.242 302.169V276.205C188.242 270.129 193.204 265.203 199.325 265.203C205.95 265.203 211.094 270.932 210.337 277.464L207.347 303.257C206.789 308.058 202.694 311.682 197.825 311.682Z" fill="#241ED3"/>
<path d="M263.128 212.66L254.062 208.115C246.227 204.187 236.855 204.831 229.64 209.792L180.256 243.746C176.912 246.046 174.823 249.748 174.597 253.78L172.455 291.888C172.174 296.889 175.732 301.298 180.71 302.119C185.885 302.971 190.829 299.665 191.978 294.583L200.414 257.258L229.199 241.992C236.721 238.003 245.811 238.287 253.065 242.737L255.824 244.43L263.128 212.66Z" fill="#403ADD"/>
<path d="M279.069 320.083L308.008 305.785C313.112 303.263 314.051 296.428 309.813 292.635C307.773 290.809 304.94 290.133 302.288 290.841L286.492 295.056C273.935 298.409 260.544 294.365 251.985 284.638L250.716 283.196C244.149 275.731 250.592 264.214 260.445 265.808L297.725 271.837C302.77 272.653 307.641 269.633 309.112 264.776C310.627 259.783 308.064 254.463 303.196 252.493L222.21 219.713C193.415 208.057 162.424 202.721 131.366 204.073L91.7703 205.796C70.348 206.727 53.473 224.226 53.473 245.507C53.473 270.973 77.2456 289.904 102.29 284.379L128.625 278.571C144.223 275.13 160.537 276.953 174.982 283.749L252.741 320.332C261.094 324.261 270.799 324.17 279.069 320.083Z" fill="#5F5AE0"/>
<path d="M321.676 241.873L260.385 211.314L239.64 218.54L261.293 240.977C268.228 248.164 263.739 260.097 253.762 261.002L203.334 265.578C198.377 266.029 194.404 269.822 193.762 274.714C193.054 280.119 196.612 285.179 201.975 286.392L310.166 310.861C325.906 314.421 341.997 316.218 358.135 316.218H387.017C407.515 316.218 424.111 299.763 424.111 279.439C424.111 255.912 402.177 238.368 378.996 243.356L362.186 246.974C348.501 249.919 334.202 248.118 321.676 241.873Z" fill="#403ADD"/>
<path d="M297.719 271.818L224.653 259.851C224.385 259.807 224.144 259.665 223.976 259.454C211.616 243.842 228.121 222.105 246.644 229.602L303.42 252.584C308.161 254.502 310.656 259.684 309.182 264.548L309.116 264.768C307.642 269.627 302.765 272.645 297.719 271.818Z" fill="#5F5AE0"/>
<path d="M245.174 387.303C253.437 387.303 260.135 380.654 260.135 372.453C260.135 364.251 253.437 357.602 245.174 357.602C236.912 357.602 230.213 364.251 230.213 372.453C230.213 380.654 236.912 387.303 245.174 387.303Z" fill="#FFF500"/>
<path d="M306.216 338.593C310.513 338.593 313.996 335.136 313.996 330.871C313.996 326.606 310.513 323.149 306.216 323.149C301.919 323.149 298.436 326.606 298.436 330.871C298.436 335.136 301.919 338.593 306.216 338.593Z" fill="#FFF500"/>
<path d="M217.048 364.73C222.336 364.73 226.623 360.475 226.623 355.226C226.623 349.977 222.336 345.722 217.048 345.722C211.76 345.722 207.473 349.977 207.473 355.226C207.473 360.475 211.76 364.73 217.048 364.73Z" fill="#FFF500"/>
<path d="M219.442 381.363C221.425 381.363 223.032 379.767 223.032 377.799C223.032 375.831 221.425 374.235 219.442 374.235C217.459 374.235 215.851 375.831 215.851 377.799C215.851 379.767 217.459 381.363 219.442 381.363Z" fill="#FFF500"/>
<path d="M138.651 365.918C141.626 365.918 144.037 363.525 144.037 360.572C144.037 357.62 141.626 355.226 138.651 355.226C135.677 355.226 133.265 357.62 133.265 360.572C133.265 363.525 135.677 365.918 138.651 365.918Z" fill="#FFF500"/>
<path d="M181.74 336.217C184.715 336.217 187.126 333.824 187.126 330.871C187.126 327.918 184.715 325.525 181.74 325.525C178.765 325.525 176.354 327.918 176.354 330.871C176.354 333.824 178.765 336.217 181.74 336.217Z" fill="#FFF500"/>
<path d="M351.697 365.918C354.672 365.918 357.083 363.525 357.083 360.572C357.083 357.62 354.672 355.226 351.697 355.226C348.723 355.226 346.311 357.62 346.311 360.572C346.311 363.525 348.723 365.918 351.697 365.918Z" fill="#FFF500"/>
<path d="M245.174 409.876C248.148 409.876 250.56 407.482 250.56 404.53C250.56 401.577 248.148 399.184 245.174 399.184C242.199 399.184 239.788 401.577 239.788 404.53C239.788 407.482 242.199 409.876 245.174 409.876Z" fill="#FFF500"/>
<path d="M187.724 357.602C190.698 357.602 193.11 355.208 193.11 352.256C193.11 349.303 190.698 346.91 187.724 346.91C184.749 346.91 182.338 349.303 182.338 352.256C182.338 355.208 184.749 357.602 187.724 357.602Z" fill="#FFF500"/>
<path d="M245.175 116.429C250.133 116.429 254.152 112.439 254.152 107.518C254.152 102.597 250.133 98.6078 245.175 98.6078C240.218 98.6078 236.199 102.597 236.199 107.518C236.199 112.439 240.218 116.429 245.175 116.429Z" fill="#FFF500"/>
<path d="M245.174 199.592C248.148 199.592 250.56 197.198 250.56 194.246C250.56 191.293 248.148 188.899 245.174 188.899C242.199 188.899 239.788 191.293 239.788 194.246C239.788 197.198 242.199 199.592 245.174 199.592Z" fill="#FFF500"/>
<path d="M180.543 182.959C183.517 182.959 185.929 180.566 185.929 177.613C185.929 174.66 183.517 172.267 180.543 172.267C177.568 172.267 175.157 174.66 175.157 177.613C175.157 180.566 177.568 182.959 180.543 182.959Z" fill="#FFF500"/>
<path d="M308.609 185.335C311.583 185.335 313.995 182.942 313.995 179.989C313.995 177.036 311.583 174.643 308.609 174.643C305.634 174.643 303.223 177.036 303.223 179.989C303.223 182.942 305.634 185.335 308.609 185.335Z" fill="#FFF500"/>
<path d="M350.5 155.634C353.475 155.634 355.886 153.241 355.886 150.288C355.886 147.335 353.475 144.942 350.5 144.942C347.526 144.942 345.114 147.335 345.114 150.288C345.114 153.241 347.526 155.634 350.5 155.634Z" fill="#FFF500"/>
<path d="M350.501 169.891C361.408 169.891 370.249 161.114 370.249 150.288C370.249 139.462 361.408 130.685 350.501 130.685C339.594 130.685 330.752 139.462 330.752 150.288C330.752 161.114 339.594 169.891 350.501 169.891Z" stroke="#FFF500"/>
<path d="M138.651 155.634C141.626 155.634 144.037 153.241 144.037 150.288C144.037 147.335 141.626 144.942 138.651 144.942C135.677 144.942 133.265 147.335 133.265 150.288C133.265 153.241 135.677 155.634 138.651 155.634Z" fill="#FFF500"/>
<path d="M139.277 42.616V111.684" stroke="white"/>
<path d="M170.924 76.9016H108.13" stroke="white"/>
<path d="M153.976 90.6481L126.376 63.251" stroke="white"/>
<path d="M153.125 63.2509L125.525 90.6481" stroke="white"/>
<path d="M322.126 18.7013V51.9666" stroke="white"/>
<path d="M337.058 35.5224H306.815" stroke="white"/>
<path d="M328.676 42.0528L315.383 28.8575" stroke="white"/>
<path d="M328.704 28.8574L315.411 42.0528" stroke="white"/>
<path d="M249.363 418.192V414.628H240.985V418.192H249.363Z" fill="#FFF500"/>
<path d="M249.363 95.0437V91.4796H240.985V95.0437H249.363Z" fill="#FFF500"/>
<path d="M231.409 79.5991C241.986 79.5991 250.56 71.0886 250.56 60.5904C250.56 50.0921 241.986 41.5816 231.409 41.5816C220.833 41.5816 212.259 50.0921 212.259 60.5904C212.259 71.0886 220.833 79.5991 231.409 79.5991Z" fill="#403ADD"/>
<path d="M258.939 79.5991C269.515 79.5991 278.089 71.0886 278.089 60.5904C278.089 50.0921 269.515 41.5816 258.939 41.5816C248.362 41.5816 239.789 50.0921 239.789 60.5904C239.789 71.0886 248.362 79.5991 258.939 79.5991Z" fill="#5B57CA"/>
<path fill-rule="evenodd" clip-rule="evenodd" d="M245.175 73.8065C248.509 70.3859 250.561 65.7259 250.561 60.5904C250.561 55.4548 248.509 50.7948 245.175 47.3742C241.84 50.7948 239.789 55.4548 239.789 60.5904C239.789 65.7259 241.84 70.3859 245.175 73.8065Z" fill="#FFF500"/>
</g>
<defs>
<clipPath id="clip0_1338_2638">
<rect width="483.179" height="480" fill="white"/>
</clipPath>
</defs>
</svg>
